src/assets/img/icons/dark/icon-rocket.svg

<svg width="18" height="18" viewBox="0 0 18 18" fill="none" xmlns="http://www.w3.org/2000/svg">
<path d="M17.6311 0.0019372C14.1173 -0.0610628 10.1101 1.77569 7.57356 4.62494C5.14956 4.67069 2.78932 5.66444 1.05157 7.40219C0.950318 7.50194 0.914318 7.65119 0.958568 7.78619C1.00357 7.92194 1.12057 8.02019 1.26157 8.04044L4.15207 8.45444L3.79507 8.85419C3.66232 9.00269 3.66907 9.22844 3.81007 9.36944L8.63031 14.1897C8.70306 14.2624 8.79906 14.2992 8.89581 14.2992C8.98506 14.2992 9.07431 14.2677 9.14556 14.2039L9.54531 13.8469L9.95931 16.7374C9.97956 16.8784 10.0906 16.9819 10.2248 17.0269C10.2593 17.0382 10.2953 17.0434 10.3321 17.0434C10.4386 17.0434 10.5473 16.9969 10.6223 16.9227C12.3361 15.2089 13.3298 12.8487 13.3756 10.4247C16.2278 7.88294 18.0796 3.87719 17.9978 0.367937C17.9926 0.168437 17.8313 0.0071872 17.6311 0.0019372ZM14.1751 6.47594C13.8098 6.84119 13.3298 7.02419 12.8491 7.02419C12.3683 7.02419 11.8883 6.84119 11.5231 6.47594C10.7926 5.74469 10.7926 4.55519 11.5231 3.82394C12.2543 3.09269 13.4438 3.09269 14.1751 3.82394C14.9063 4.55519 14.9063 5.74544 14.1751 6.47594Z" fill="white"/>
<path d="M2.04304 12.6784C1.24054 13.4809 0.138793 17.1064 0.015793 17.5167C-0.023957 17.6487 0.0127931 17.7919 0.109543 17.8894C0.181543 17.9614 0.276793 17.9997 0.375043 17.9997C0.411043 17.9997 0.447043 17.9944 0.483043 17.9839C0.893293 17.8609 4.51879 16.7591 5.32129 15.9566C6.22504 15.0529 6.22504 13.5821 5.32129 12.6784C4.41679 11.7746 2.94679 11.7754 2.04304 12.6784Z" fill="white"/>
</svg>

<svg xmlns="http://www.w3.org/2000/svg" width="18" height="18" fill="none"><path fill="#fff" d="M17.63 0c-3.51-.06-7.52 1.78-10.06 4.62A9.52 9.52 0 001.05 7.4a.38.38 0 00.21.64l2.9.41-.36.4a.37.37 0 00.01.52l4.82 4.82a.37.37 0 00.52.01l.4-.35.4 2.89c.03.14.14.24.27.29.04 0 .08.01.11.01.1 0 .22-.04.3-.12a9.5 9.5 0 002.75-6.5C16.23 7.88 18.08 3.88 18 .37c0-.2-.17-.36-.37-.37zm-3.45 6.48a1.87 1.87 0 01-2.66 0 1.88 1.88 0 112.66 0zM2.04 12.68c-.8.8-1.9 4.43-2.02 4.84a.38.38 0 00.46.46c.41-.12 4.04-1.22 4.84-2.02a2.32 2.32 0 00-3.28-3.28z"/></svg>
